X:175
T:The House on the Hill
T:Miss Thorton's
S:Paul McGrattan : The Frost is All Over
Z:Philippe Murphy
M:4/4
L:1/8
R:reel
K:G
G2Bd gdBd | cBAB cded | B3A GBdg | ecAF GFED |
G2Bd gdBd | cBAB cded | B3A GBdg | egfa g4 ::
bgga bgag | egdg egdg | bgga bgag | egfa g3a |
bgga bgag | egdg egdg | g3a gfed | egfa g4 :|
